src/icons/command-barrier.svg

<svg enable-background="new 0 0 14 13" viewBox="0 0 14 13" xmlns="http://www.w3.org/2000/svg"><path d="m4 0c-.6 0-1 .4-1 1s.4 1 1 1 1-.4 1-1-.4-1-1-1zm7 0c-.6 0-1 .4-1 1s.4 1 1 1 1-.4 1-1-.4-1-1-1zm-5.8 3h-4c-.7 0-1.2.5-1.2 1.2v2.3c0 .6.5 1.2 1.2 1.2h.5.1v4.7c0 .2.1.4.3.5s.4.1.6 0 .3-.3.3-.5v-4.7h2.2.2 3.3.2 2.2v2.3h-7v1.2h7v1.2c0 .2.1.4.3.5s.4.1.6 0 .3-.3.3-.5v-4.7h.6c.6 0 1.2-.5 1.2-1.2v-2.3c-.1-.7-.6-1.2-1.3-1.2h-.5-.1s0 0-.1 0h-3.3-.1s0 0-.1 0h-3.4c.1 0 .1 0 0 0zm-4.2 2h3l-2.6 2h-.4zm4.2 0h1.8l-2.2 2h-1.8zm4 0h1.8l-2.2 2h-1.8zm3.4 0h.4v2h-3z" fill="#4d5969"/></svg>

<svg viewBox="0 0 14 13" xmlns="http://www.w3.org/2000/svg"><path d="M4 0c-.6 0-1 .4-1 1s.4 1 1 1 1-.4 1-1-.4-1-1-1zm7 0c-.6 0-1 .4-1 1s.4 1 1 1 1-.4 1-1-.4-1-1-1zM5.2 3h-4C.5 3 0 3.5 0 4.2v2.3c0 .6.5 1.2 1.2 1.2h.6v4.7c0 .2.1.4.3.5s.4.1.6 0 .3-.3.3-.5V7.7H11.1V10h-7v1.2h7v1.2c0 .2.1.4.3.5s.4.1.6 0 .3-.3.3-.5V7.7h.6c.6 0 1.2-.5 1.2-1.2V4.2C14 3.5 13.5 3 12.8 3h-.6-3.5-3.5c.1 0 .1 0 0 0zM1 5h3L1.4 7H1zm4.2 0H7L4.8 7H3zm4 0H11L8.8 7H7zm3.4 0h.4v2h-3z" fill="#4d5969"/></svg>
